assets/icons/phone/old-filled.svg

<?xml version="1.0" encoding="UTF-8" standalone="no"?>
<svg viewBox="0 0 24 24" height="24" width="24" version="1.1" id="svg8" sodipodi:docname="phone-old-filled.svg" inkscape:version="1.1 (ce6663b3b7, 2021-05-25)"
   xmlns:inkscape="http://www.inkscape.org/namespaces/inkscape"
   xmlns:sodipodi="http://sodipodi.sourceforge.net/DTD/sodipodi-0.dtd"
   xmlns="http://www.w3.org/2000/svg"
   xmlns:svg="http://www.w3.org/2000/svg"
   xmlns:rdf="http://www.w3.org/1999/02/22-rdf-syntax-ns#"
   xmlns:cc="http://creativecommons.org/ns#"
   xmlns:dc="http://purl.org/dc/elements/1.1/">
   <metadata id="metadata14">
      <rdf:RDF>
         <cc:Work rdf:about="">
            <dc:format>image/svg+xml</dc:format>
            <dc:type rdf:resource="http://purl.org/dc/dcmitype/StillImage" />
         </cc:Work>
      </rdf:RDF>
   </metadata>
   <defs id="defs12" />
   <sodipodi:namedview pagecolor="#ffffff" bordercolor="#666666" borderopacity="1" objecttolerance="10" gridtolerance="10" guidetolerance="10" inkscape:pageopacity="0" inkscape:pageshadow="2" inkscape:window-width="1920" inkscape:window-height="1043" id="namedview10" showgrid="true" inkscape:zoom="22.627418" inkscape:cx="10.496116" inkscape:cy="11.313708" inkscape:window-x="1920" inkscape:window-y="0" inkscape:window-maximized="1" inkscape:current-layer="svg8" inkscape:document-rotation="0" inkscape:pagecheckerboard="0">
      <inkscape:grid type="xygrid" id="grid925" />
   </sodipodi:namedview>
   <path id="rect372" style="fill:#808080;fill-opacity:1;fill-rule:evenodd;stroke-width:1.5;stroke-linecap:square;stroke-linejoin:round" d="M 6.5 2 C 6.223 2 6 2.223 6 2.5 L 6 8.5 L 6 19.5 C 6 20.041666 6.0635997 20.483918 6.2304688 20.859375 C 6.3973378 21.234832 6.6879008 21.527544 7.0273438 21.697266 C 7.7062278 22.036708 8.500001 22 9.5 22 L 13.5 22 C 14.499999 22 15.293771 22.03671 15.972656 21.697266 C 16.312099 21.527544 16.602661 21.234832 16.769531 20.859375 C 16.936401 20.483918 17 20.041666 17 19.5 L 17 7.5 C 17 6.9583339 16.9364 6.516082 16.769531 6.140625 C 16.602661 5.765168 16.312099 5.4724556 15.972656 5.3027344 C 15.293771 4.963292 14.499999 5 13.5 5 L 9.5 5 L 7 5 L 7 2.5 C 7 2.223 6.777 2 6.5 2 z M 8 7 L 15 7 L 15 12 L 8 12 L 8 7 z M 8 13 L 9 13 L 9 14 L 8 14 L 8 13 z M 10 13 L 11 13 L 11 14 L 10 14 L 10 13 z M 12 13 L 13 13 L 13 14 L 12 14 L 12 13 z M 14 13 L 15 13 L 15 14 L 14 14 L 14 13 z M 8 15 L 9 15 L 9 16 L 8 16 L 8 15 z M 10 15 L 11 15 L 11 16 L 10 16 L 10 15 z M 12 15 L 13 15 L 13 16 L 12 16 L 12 15 z M 14 15 L 15 15 L 15 16 L 14 16 L 14 15 z M 8 17 L 9 17 L 9 18 L 8 18 L 8 17 z M 10 17 L 11 17 L 11 18 L 10 18 L 10 17 z M 12 17 L 13 17 L 13 18 L 12 18 L 12 17 z M 14 17 L 15 17 L 15 18 L 14 18 L 14 17 z M 8 19 L 9 19 L 9 20 L 8 20 L 8 19 z M 10 19 L 11 19 L 11 20 L 10 20 L 10 19 z M 12 19 L 13 19 L 13 20 L 12 20 L 12 19 z M 14 19 L 15 19 L 15 20 L 14 20 L 14 19 z " />
</svg>

<svg height="24" width="24" xmlns="http://www.w3.org/2000/svg"><path style="fill:gray;fill-opacity:1;stroke-width:1.5;stroke-linecap:square;stroke-linejoin:round" d="M6.5 2c-.277 0-.5.223-.5.5v17c0 .542.064.984.23 1.36.167.375.458.668.797.837.68.34 1.473.303 2.473.303h4c1 0 1.794.037 2.473-.303.34-.17.63-.462.797-.838.166-.375.23-.817.23-1.359v-12c0-.542-.064-.984-.23-1.36a1.72 1.72 0 0 0-.797-.837C15.293 4.963 14.5 5 13.5 5H7V2.5c0-.277-.223-.5-.5-.5zM8 7h7v5H8V7zm0 6h1v1H8v-1zm2 0h1v1h-1v-1zm2 0h1v1h-1v-1zm2 0h1v1h-1v-1zm-6 2h1v1H8v-1zm2 0h1v1h-1v-1zm2 0h1v1h-1v-1zm2 0h1v1h-1v-1zm-6 2h1v1H8v-1zm2 0h1v1h-1v-1zm2 0h1v1h-1v-1zm2 0h1v1h-1v-1zm-6 2h1v1H8v-1zm2 0h1v1h-1v-1zm2 0h1v1h-1v-1zm2 0h1v1h-1v-1z"/></svg>
